X:1
T:Title
%%score { ( 1 3 ) | ( 2 4 ) }
L:1/8
Q:1/4=100
M:4/4
K:Bb
V:1 treble nm="Grand Piano"
V:3 treble 
V:2 bass 
V:4 bass 
V:1
 [DF]>[_D=E] [=DF]>[_EG] [DF]2 [DFB]2 | B4 A4 | c3 c d2 c2 | [DB]2 [EG]2 [DF]4 | E>D E>F G2 A2 | %5
w: Robert~Lowry * * * * *|||||
 [DB]4 [Fd]2 [Fd][Fd] | [=Ec]2 [GB]2 [FA]2 [EG]2 | F6 z2 | c2 e2 d2 c2 | B3 G [DF]4 | %10
w: |||||
 [EG]2 [GB]2 [FA]2 [EG]2 | [EG]3 [DF] [DF]4 | B3 B c2 c2 | d2 e2 d2 [Gc]2 | [FB]4 [EA]4 | %15
w: |||||
 [DB]6 z2 | c>B A>B c2 d2 | [DB]4 [DF]4 | [EG]>[FA] [GB]>[Gc] [GB]2 [EG]2 | %19
w: ||||
 [DF]>[DF] [FB]>[FB] c4 | c>=B c>d e2 A2 | [DFB]4 [Fd]4 | c>B A>B c2 e2 | z4 c4 | %24
w: |||||
 [DB]>[EA] [FB]>c d2 [_Af]2 | [Gf]4 [Ge]2 [Gd][Gc] | B2 d2 c3 [DB] | [DB]8 |] %28
w: ||||
V:2
 [B,,B,]>[B,,B,] [B,,B,]>[B,,B,] [B,,B,]2 B,,2 | [F,CE]4 [F,CE]4 | %2
 [F,A,E]3 [F,A,E] [F,A,F]2 [F,A,E]2 | [B,,B,]2 [B,,B,]2 [B,,B,]4 | %4
 [F,C]>[F,B,] [F,C]>[F,D] [F,E]2 [F,E]2 | [B,,F,]4 [B,,B,]2 [B,,B,][B,,B,] | %6
 [C,G,]2 [C,C]2 [C,C]2 [C,B,]2 | [F,A,]6 z2 | [F,A,F]2 [F,CF]2 [F,B,F]2 [F,A,E]2 | %9
 [G,B,D]3 [G,B,E] [B,,B,]4 | [E,B,]2 [E,B,]2 [E,B,]2 [E,B,]2 | [B,,B,]3 [B,,B,] [B,,B,]4 | %12
 [G,B,D]3 [G,B,D] [F,A,F]2 [F,A,F]2 | [B,F]2 [A,CF]2 [B,G]2[K:bass] [E,E]2 | [F,D]4 [F,C]4 | %15
 [B,,B,]6 z2 | [F,A,E]>[F,B,D] [F,CE]>[F,B,D] [F,A,E]2 [F,A,F]2 | [B,,B,]4 [B,,B,]4 | %18
 [E,B,]>[E,C] [E,B,]>[E,B,] [E,B,]2 [E,B,]2 | [B,,B,]>[B,,B,] [D,B,]>[D,B,] [F,A,F]4 | %20
 [F,A,F]>[F,_A,F] [F,=A,F]>[F,B,F] [F,CF]2 [F,EF]2 | B,,4 [B,,B,]4 | %22
 [F,A,E]>[F,B,D] [F,CE]>[F,B,D] [F,A,F]2 [F,CF]2 | z4 F2 z2 | %24
 [B,,B,]>[C,F,] [D,B,]>[K:treble][F,A,F] [B,F]2[K:bass] [D,B,]2 | [E,B,]4 [E,B,]2 [E,B,][E,E] | %26
 [F,DF]2 [F,B,F]2 [F,A,E]3 [B,,B,] | [B,,B,]8 |] %28
V:3
 x8 | x8 | x8 | x8 | x8 | x8 | x8 | x8 | x8 | x8 | x8 | x8 | x8 | x8 | x8 | x8 | x8 | x8 | x8 | %19
 x8 | x8 | x8 | x8 | d4 z2 E2 | x8 | x8 | x8 | x8 |] %28
V:4
 x8 | x8 | x8 | x8 | x8 | x8 | x8 | x8 | x8 | x8 | x8 | x8 | x8 | x6[K:bass] x2 | x8 | x8 | x8 | %17
 x8 | x8 | x8 | x8 | x8 | x8 | [F,B,F]4 [F,A,]4 | x7/2[K:treble] x5/2[K:bass] x2 | x8 | x8 | x8 |] %28

